sldassets/icons/utility/prompt_edit.svg

<?xml version="1.0"?><svg xmlns="http://www.w3.org/2000/svg" width="52" height="52" viewBox="0 0 52 52"><path fill-rule="evenodd" clip-rule="evenodd" fill="#fff" d="m47 4.5h-42c-1.7 0-3 1.3-3 3v30.6c0 1.7 1.3 3 3 3h14.5l3.6 5.2c1 1.4 2.8 1.7 4.2 0.7l0.6-0.6 4.2-5.3h14.9c1.7 0 3-1.3 3-3v-30.6c0-1.7-1.3-3-3-3z m-25.7 27.5c-0.2 0.2-0.3 0.3-0.5 0.3l-5 1.2c-0.5 0.1-0.9-0.3-0.8-0.8l1.2-5c0-0.1 0.1-0.3 0.2-0.4l0.1-0.1c0.1-0.1 0.4-0.1 0.6 0l4.2 4.2c0.1 0.2 0.1 0.5 0 0.6z m12.1-12.3l-10.3 10.3c-0.2 0.2-0.5 0.2-0.6 0l-4.1-4.1c-0.2-0.1-0.2-0.4 0-0.6l10.2-10.3c0.2-0.2 0.5-0.2 0.6 0l4.1 4.1c0.2 0.2 0.2 0.4 0.1 0.6z m3.1-3l-1.2 1.2c-0.2 0.2-0.5 0.2-0.6 0l-4.1-4.1c-0.2-0.2-0.2-0.5 0-0.6l1.1-1.2c0.7-0.7 1.9-0.7 2.6 0l2.2 2.2c0.7 0.7 0.7 1.8 0 2.5z"></path></svg>

<?xml version="1.0" encoding="utf-8"?>
<!-- Generator: Adobe Illustrator 23.0.2, SVG Export Plug-In . SVG Version: 6.00 Build 0)  -->
<svg version="1.1" id="Layer_1" xmlns="http://www.w3.org/2000/svg" xmlns:xlink="http://www.w3.org/1999/xlink" x="0px" y="0px"
	 width="52px" height="52px" viewBox="0 0 52 52" enable-background="new 0 0 52 52" xml:space="preserve">
<path fill-rule="evenodd" clip-rule="evenodd" fill="#FFFFFF" d="M47,4.5H5c-1.7,0-3,1.3-3,3v30.6c0,1.7,1.3,3,3,3h14.5l3.6,5.2
	c1,1.4,2.8,1.7,4.2,0.7c0.2-0.2,0.4-0.4,0.6-0.6l4.2-5.3H47c1.7,0,3-1.3,3-3V7.5C50,5.8,48.7,4.5,47,4.5z M21.3,32L21.3,32
	c-0.2,0.2-0.3,0.3-0.5,0.3l-5,1.2c-0.5,0.1-0.9-0.3-0.8-0.8l1.2-5c0-0.1,0.1-0.3,0.2-0.4l0.1-0.1c0.1-0.1,0.4-0.1,0.6,0l4.2,4.2
	C21.4,31.6,21.4,31.9,21.3,32z M33.4,19.7L23.1,30c-0.2,0.2-0.5,0.2-0.6,0l-4.1-4.1c-0.2-0.1-0.2-0.4,0-0.6L28.6,15
	c0.2-0.2,0.5-0.2,0.6,0l4.1,4.1C33.5,19.3,33.5,19.5,33.4,19.7z M36.5,16.7l-1.2,1.2c-0.2,0.2-0.5,0.2-0.6,0l-4.1-4.1
	c-0.2-0.2-0.2-0.5,0-0.6l1.1-1.2c0.7-0.7,1.9-0.7,2.6,0l2.2,2.2C37.2,14.9,37.2,16,36.5,16.7z"/>
</svg>
